**kern	**kern	**dynam
*part1	*part1	*part1
*staff2	*staff1	*
*I"Piano	*	*
*clefG2	*clefG2	*
*k[f#c#]	*k[f#c#]	*
=1	=1	=1
*^	*	*
8re	4B	8r	.
8d 8g	.	8b 8dd 8gg	.
8re	4G	8r	.
8B 8e	.	8g 8b 8ee	.
*clefF4	*	*	*
=	=	=	=
8rF	4E	8r	.
8G 8B	.	8e 8g 8b	.
8rF	4BB	8r	.
8F# 8A	.	8B 8d#X 8a	.
=	=	=	=
!	!	!LO:TX:a:i:t=dim.	!
8rGG	2EE	8r	.
8BB 8E	.	8G#X 8dn 8g#X	.
4r	.	4r	.
*	*	*clefF4	*
=	=	=	=
8rGG	2BBB	8r	.
4.BB	.	4.D 4.G#X 4.d	.
*v	*v	*	*
=	=	=
2AAA 2AA	4r	<
.	4F# 4d 4f#	.
=	=	=
2AA 2E	2Gn 2c# 2gn	[ >
*	*clefG2	*
=	=	=
(24DDLL	8r	]
24AA	.	.
24DJJ)	.	.
8r	8A 8cn 8f#	.
(24DDLL	8r	.
24GG	.	.
24DJJ)	.	.
8r	8G 8B 8g	.
=	=	=
*-	*-	*-
!!!system-decoration: {(s1,s2)}
